X:1
T:Lady Hammond's Alman
T:Lady Hammond's Alman
T:John Dowland
C:John Dowland
L:1/8
M:2/2
K:D
V:1 treble 
V:1
 A2 | d2 cd e2 f2 | g2 fe d2 e2 | f2 e2 de f2 | e8 | e2 ee cAcd | e6 ag | f2 gf ed e2 | d6 :: A2 | %10
 c2 cd e2 de | f6 ag | f2 ef g2 f2 | e8 | a3 g fe d2 | g3 f e2 ag | f2 gf ed e2 | d6 :| z2 | %19
 a3 g f3 d2 | g3 f e4 | f2 ef g2 f2 | e8 | a3 g fe d2 | g3 f e2 ag | fe/f/ gf edfe | d6 || %27

